icons/src/svg/document_eye.svg

<svg width="32" height="32" viewBox="0 0 32 32" fill="none" xmlns="http://www.w3.org/2000/svg">
<path fill-rule="evenodd" clip-rule="evenodd" d="M6 4C6 2.89543 6.89543 2 8 2H15.5858C16.1162 2 16.6249 2.21071 17 2.58579L25.4142 11C25.7893 11.3751 26 11.8838 26 12.4142V28C26 29.1046 25.1046 30 24 30H18C17.4477 30 17 29.5523 17 29C17 28.4477 17.4477 28 18 28H24V13H17C15.8954 13 15 12.1046 15 11V4H8V13C8 13.5523 7.55228 14 7 14C6.44772 14 6 13.5523 6 13V4ZM17 5.41421V11H22.5858L17 5.41421Z" fill="#0D0F13"/>
<path fill-rule="evenodd" clip-rule="evenodd" d="M17.7567 22.962C18.0574 22.414 18.0858 21.7535 17.8267 21.1785C16.4694 18.1656 13.5121 16 10.0042 16C6.5512 16 3.63172 18.0983 2.24655 21.0375C1.94581 21.5855 1.91748 22.246 2.17651 22.821C3.53385 25.8339 6.49117 27.9995 9.99909 27.9995C13.4521 27.9995 16.3715 25.9013 17.7567 22.962ZM5.07258 23.6909C4.64437 23.1912 4.28357 22.626 4.00529 22.0112C4.00353 22.0073 4.00176 22.0034 4.00001 21.9995H4.00529L4.00664 21.9965C5.07275 19.6334 7.35758 18 10.0042 18C11.9587 18 13.7159 18.8909 14.9307 20.3086C15.3589 20.8083 15.7197 21.3736 15.998 21.9883C15.9997 21.9922 16.0015 21.9961 16.0033 22H15.998L15.9966 22.003C14.9305 24.3661 12.6457 25.9995 9.99909 25.9995C8.04457 25.9995 6.28734 25.1086 5.07258 23.6909Z" fill="#0D0F13"/>
<path d="M12 22C12 23.1046 11.1046 24 10 24C8.89543 24 8 23.1046 8 22C8 20.8954 8.89543 20 10 20C11.1046 20 12 20.8954 12 22Z" fill="#0D0F13"/>
</svg>

<?xml version="1.0" encoding="utf-8"?>
<!-- Generator: Adobe Illustrator 26.0.1, SVG Export Plug-In . SVG Version: 6.00 Build 0)  -->
<svg version="1.1" id="Layer_1" xmlns="http://www.w3.org/2000/svg" xmlns:xlink="http://www.w3.org/1999/xlink" x="0px" y="0px"
	 viewBox="0 0 32 32" style="enable-background:new 0 0 32 32;" xml:space="preserve">
<style type="text/css">
	.st0{fill-rule:evenodd;clip-rule:evenodd;fill:#0D0F13;}
</style>
<path class="st0" d="M6,4c0-1.1,0.9-2,2-2h7.6c0.5,0,1,0.2,1.4,0.6l8.4,8.4c0.4,0.4,0.6,0.9,0.6,1.4V28c0,1.1-0.9,2-2,2h-6
	c-0.6,0-1-0.4-1-1s0.4-1,1-1h6V13h-7c-1.1,0-2-0.9-2-2V4H8v9c0,0.6-0.4,1-1,1s-1-0.4-1-1V4z M17,5.4V11h5.6L17,5.4z M17.8,23
	c0.3-0.5,0.3-1.2,0.1-1.8c-1.4-3-4.3-5.2-7.8-5.2c-3.5,0-6.4,2.1-7.8,5c-0.3,0.5-0.3,1.2-0.1,1.8c1.4,3,4.3,5.2,7.8,5.2
	C13.5,28,16.4,25.9,17.8,23z M5.1,23.7C4.6,23.2,4.3,22.6,4,22c0,0,0,0,0,0h0c0,0,0,0,0,0c1.1-2.4,3.4-4,6-4c2,0,3.7,0.9,4.9,2.3
	c0.4,0.5,0.8,1.1,1.1,1.7c0,0,0,0,0,0h0c0,0,0,0,0,0c-1.1,2.4-3.4,4-6,4C8,26,6.3,25.1,5.1,23.7z M12,22c0,1.1-0.9,2-2,2
	c-1.1,0-2-0.9-2-2s0.9-2,2-2C11.1,20,12,20.9,12,22z"/>
</svg>
